client/public/img/guns/gun-pkm-01.svg

<?xml version="1.0" encoding="UTF-8"?>
<!DOCTYPE svg PUBLIC "-//W3C//DTD SVG 1.1//EN" "http://www.w3.org/Graphics/SVG/1.1/DTD/svg11.dtd">
<svg xmlns="http://www.w3.org/2000/svg" version="1.1" width="90px" height="267px" style="shape-rendering:geometricPrecision; text-rendering:geometricPrecision; image-rendering:optimizeQuality; fill-rule:evenodd; clip-rule:evenodd" xmlns:xlink="http://www.w3.org/1999/xlink">
<g><path style="opacity:1" fill="#010000" d="M 41.5,-0.5 C 43.8333,-0.5 46.1667,-0.5 48.5,-0.5C 48.1672,15.8469 48.5006,32.1803 49.5,48.5C 52.9588,51.7366 56.9588,54.2366 61.5,56C 62.1667,57 62.8333,58 63.5,59C 70.6055,62.887 77.9388,66.2203 85.5,69C 87.6777,73.6228 86.3444,75.6228 81.5,75C 72.112,69.1393 62.112,64.6393 51.5,61.5C 50.502,70.1411 50.1686,78.8078 50.5,87.5C 54.1974,88.0078 57.8641,88.6745 61.5,89.5C 61.5012,97.5173 61.8345,105.517 62.5,113.5C 68.8333,113.5 75.1667,113.5 81.5,113.5C 81.5,124.833 81.5,136.167 81.5,147.5C 75.1667,147.5 68.8333,147.5 62.5,147.5C 62.6666,168.503 62.5,189.503 62,210.5C 60.3903,212.731 58.557,214.731 56.5,216.5C 55.5005,233.153 55.1672,249.82 55.5,266.5C 48.1667,266.5 40.8333,266.5 33.5,266.5C 33.8328,249.82 33.4995,233.153 32.5,216.5C 30.5067,214.334 28.6733,212.001 27,209.5C 26.5,188.836 26.3334,168.169 26.5,147.5C 20.1667,147.5 13.8333,147.5 7.5,147.5C 7.5,136.167 7.5,124.833 7.5,113.5C 13.8333,113.5 20.1667,113.5 26.5,113.5C 27.1655,105.517 27.4988,97.5173 27.5,89.5C 31.1359,88.6745 34.8026,88.0078 38.5,87.5C 38.8314,78.8078 38.498,70.1411 37.5,61.5C 26.9187,64.6224 16.9187,69.1224 7.5,75C 2.65561,75.6228 1.32227,73.6228 3.5,69C 10.606,66.2812 17.606,63.2812 24.5,60C 25.7433,58.8455 26.7433,57.5122 27.5,56C 32.4346,53.7038 37.1013,51.2038 41.5,48.5C 41.5,32.1667 41.5,15.8333 41.5,-0.5 Z"/></g>
<g><path style="opacity:1" fill="#262a1b" d="M 23.5,120.5 C 20.5,120.5 17.5,120.5 14.5,120.5C 14.5,127.167 14.5,133.833 14.5,140.5C 13.5088,133.687 13.1755,126.687 13.5,119.5C 17.0419,119.187 20.3752,119.521 23.5,120.5 Z"/></g>
<g><path style="opacity:1" fill="#465722" d="M 23.5,120.5 C 24.4907,126.979 24.824,133.646 24.5,140.5C 21.1667,140.5 17.8333,140.5 14.5,140.5C 14.5,133.833 14.5,127.167 14.5,120.5C 17.5,120.5 20.5,120.5 23.5,120.5 Z"/></g>
<g><path style="opacity:1" fill="#455622" d="M 65.5,119.5 C 68.7766,119.216 71.9433,119.549 75,120.5C 75.4996,127.158 75.6663,133.825 75.5,140.5C 72.1667,140.5 68.8333,140.5 65.5,140.5C 65.5,133.5 65.5,126.5 65.5,119.5 Z"/></g>
<g><path style="opacity:1" fill="#4e4e4e" d="M 42.5,121.5 C 43.9778,121.238 45.3112,121.571 46.5,122.5C 45.8333,122.833 45.1667,123.167 44.5,123.5C 43.2867,123.253 42.62,122.586 42.5,121.5 Z"/></g>
<g><path style="opacity:1" fill="#272928" d="M 41.5,127.5 C 43.5,127.5 45.5,127.5 47.5,127.5C 47.5,132.167 47.5,136.833 47.5,141.5C 45.5,141.5 43.5,141.5 41.5,141.5C 41.5,136.833 41.5,132.167 41.5,127.5 Z"/></g>
<g><path style="opacity:1" fill="#2c2d2d" d="M 46.5,174.5 C 45.209,174.263 44.209,174.596 43.5,175.5C 43.5,183.5 43.5,191.5 43.5,199.5C 42.5032,181.674 42.1699,163.674 42.5,145.5C 43.8333,145.5 45.1667,145.5 46.5,145.5C 46.5,155.167 46.5,164.833 46.5,174.5 Z"/></g>
<g><path style="opacity:1" fill="#979897" d="M 43.5,175.5 C 44.824,179.107 45.4907,183.107 45.5,187.5C 45.4907,191.893 44.824,195.893 43.5,199.5C 43.5,191.5 43.5,183.5 43.5,175.5 Z"/></g>
<g><path style="opacity:1" fill="#616161" d="M 43.5,175.5 C 44.209,174.596 45.209,174.263 46.5,174.5C 46.5,183.167 46.5,191.833 46.5,200.5C 45.209,200.737 44.209,200.404 43.5,199.5C 44.824,195.893 45.4907,191.893 45.5,187.5C 45.4907,183.107 44.824,179.107 43.5,175.5 Z"/></g>
<g><path style="opacity:1" fill="#461400" d="M 42.5,217.5 C 43.8333,217.5 45.1667,217.5 46.5,217.5C 46.5,230.833 46.5,244.167 46.5,257.5C 45.1667,257.5 43.8333,257.5 42.5,257.5C 42.5,244.167 42.5,230.833 42.5,217.5 Z"/></g>
</svg>

<svg width="90" height="267" xmlns="http://www.w3.org/2000/svg" style="shape-rendering:geometricPrecision;text-rendering:geometricPrecision;image-rendering:optimizeQuality;fill-rule:evenodd;clip-rule:evenodd" viewBox="0 0 90 267"><path fill="#010000" d="M41.5-.5h7q-.5 24.52 1 49 5.189 4.856 12 7.5l2 3a163 163 0 0 0 22 10q3.266 6.935-4 6a121.5 121.5 0 0 0-30-13.5 170 170 0 0 0-1 26 129 129 0 0 1 11 2q.001 12.025 1 24h19v34h-19q.25 31.505-.5 63a34.5 34.5 0 0 1-5.5 6q-1.5 24.98-1 50h-22q.5-25.02-1-50a58 58 0 0 1-5.5-7q-.75-30.996-.5-62h-19v-34h19q.999-11.975 1-24a129 129 0 0 1 11-2 170 170 0 0 0-1-26A121.2 121.2 0 0 0 7.5 75q-7.267.935-4-6a290 290 0 0 0 21-9 13.9 13.9 0 0 0 3-4 137 137 0 0 0 14-7.5z" style="opacity:1"/><path fill="#262a1b" d="M23.5 120.5h-9v20q-1.487-10.22-1-21 5.313-.469 10 1" style="opacity:1"/><path fill="#465722" d="M23.5 120.5q1.486 9.719 1 20h-10v-20z" style="opacity:1"/><path fill="#455622" d="M65.5 119.5q4.915-.426 9.5 1 .75 9.987.5 20h-10z" style="opacity:1"/><path fill="#4e4e4e" d="M42.5 121.5q2.217-.393 4 1l-2 1q-1.82-.37-2-2" style="opacity:1"/><path fill="#272928" d="M41.5 127.5h6v14h-6z" style="opacity:1"/><path fill="#2c2d2d" d="M46.5 174.5q-1.936-.356-3 1v24a730 730 0 0 1-1-54h4z" style="opacity:1"/><path fill="#979897" d="M43.5 175.5q1.985 5.41 2 12-.015 6.59-2 12z" style="opacity:1"/><path fill="#616161" d="M43.5 175.5q1.064-1.356 3-1v26q-1.936.356-3-1 1.985-5.41 2-12-.015-6.59-2-12" style="opacity:1"/><path fill="#461400" d="M42.5 217.5h4v40h-4z" style="opacity:1"/></svg>
